!!!COM:	Bach, Johann Sebastian
!!!OMV:	Erschienen ist der herrliche Tag
!!!OTL:	Erschienen ist der herrliche Tag
**kern	**fb	**kern	**kern	**kern	**kern
*part5	*part5	*part4	*part3	*part2	*part1
*staff5	*	*staff4	*staff3	*staff2	*staff1
*I"Continuo	*	*I"Voice	*I"Voice	*I"Voice	*I"Voice
*I'Cont.	*	*I'V	*I'V	*I'V	*I'V
*clefF4	*	*clefF4	*clefGv2	*clefG2	*clefG2
*Trd0c0	*	*	*	*	*
*k[f#c#]	*	*k[f#c#]	*k[f#c#]	*k[f#c#]	*k[f#c#]
*M3/4	*	*M3/4	*M3/4	*M3/4	*M3/4
=	=	=	=	=	=
8F#L	.	8F#L	8AL	4c#	4f#
8G#XJ	.	8G#XJ	8BJ	.	.
4A	6	4A	4c#	4c#	4f#
[4B	5	[4B	4B	4d#X	4f#
=3	=3	=3	=3	=3	=3
4B]	4 2	4B]	4G#X	4e	2cc#
4A#X	6	4A#X	4c#	4f#	.
4B	.	4B	4B	4f#	4dd#X
=4	=4	=4	=4	=4	=4
4G#X	6	4G#X	4B	8g#XL	4ee
.	.	.	.	8a#XJ	.
4E	5	4E	4G#X	4b	4dd#X
4F#	#	4F#	4c#	4a#	4cc#
=5	=5	=5	=5	=5	=5
2.BB;	#	2.BB;	2.d#X;	2.f#;	2.b;
=6	=6	=6	=6	=6	=6
4A#X	6	4A#X	4c#	4f#	4cc#
4B	.	4B	4B	4f#	4dd#X
4G#X	#6\	4G#X	4B	4g#X	4ee#X
=7	=7	=7	=7	=7	=7
8F#L	5	8F#L	2c#	8aL	2ff#
8E#X	.	8E#X	.	8b	.
8F#	.	8F#	.	8a	.
8G#XJ	.	8G#XJ	.	8g#XJ	.
4A	6	4A	4c#	4f#	4cc#
=8	=8	=8	=8	=8	=8
4G#X	6 4	4G#X	2c#	4g#X	4ee
4F#	#6\ 5	4F#	.	4a	2dd#X
4G#	#5\ #	4G#	4B#X	4g#	.
=9	=9	=9	=9	=9	=9
2C#;	#	2C#;	2G#X;	2e#X;	2cc#;
4F#	.	4F#	4A	4f#	4cc#
=10	=10	=10	=10	=10	=10
!!linebreak:original
2G#X	nr6	2G#X	2B	2e	4ee
.	.	.	.	.	4dd
4A	5	4A	4A	4e	4cc#
=11	=11	=11	=11	=11	=11
2D#X	6 5	2D#X	4F#	2f#	4b
.	.	.	2B	.	4a
4E	#r5	4E	.	4e	4g#X
=12	=12	=12	=12	=12	=12
4C#	6	4C#	8AL	2e	4a
.	.	.	8BJ	.	.
4AA	6	4AA	4c#	.	2f#
4BB	7 #	4BB	8BL	4d#X	.
.	.	.	8AJ	.	.
=13	=13	=13	=13	=13	=13
2E;	.	2E;	2G#X;	2B;	2e;
4C#	.	4C#	4G#	4c#	4e
=14	=14	=14	=14	=14	=14
2F#	.	2F#	4A	4c#	2a
.	.	.	2d	4f#	.
4G#X	6	4G#X	.	4e	4b
=15	=15	=15	=15	=15	=15
4A	.	4A	4c#	8eL	2cc#
.	.	.	.	8f#J	.
2E#X	.	2E#X	2c#	2g#X	.
.	.	.	.	.	4b
=16	=16	=16	=16	=16	=16
4F#	.	4F#	8c#L	4f#	4a
.	.	.	8dJ	.	.
4c#	.	4c#	2e	8g#XL	2ee
.	.	.	.	8aJ	.
4G#X	6	4G#X	.	4b	.
=17	=17	=17	=17	=17	=17
2A;	.	2A;	2e;	2a;	2cc#;
4B	#6\	4B	4d	4g#X	4b
=18	=18	=18	=18	=18	=18
4c#	6 4	4c#	4c#	2f#	4a
2C#	#5\ 4	2C#	8BL	.	2g#X
.	.	.	8AJ	.	.
.	#	.	4B	4e#X	.
=19	=19	=19	=19	=19	=19
2.F#;	.	2.F#;	2.A#X;	2.c#;	2.f#;
=||	=||	=||	=||	=||	=||
*-	*-	*-	*-	*-	*-
!!!system-decoration: s1,s2,s3,s4,s5
